X: 3449
T: Better Than Worse
R: jig
M: 6/8
K: Gmajor
|:DGG EFD|DGG EFD|DGG FGA|BGG AFD|
DGG EFD|DGG EFD|DGG FGA|BGG A3:|
|:B3 cBc|dcB cAG|B3 cBc|def G2c|
B3 cBc|dcB cAG|DGG FAA|AGG G3:|

